X: 22479
T: Lady Birr
R: reel
M: 4/4
K: Adorian
|:EAAG ABcd|eB B2 efg2|GEDE G3B|cABG AGED|
A2EA ABcd|eB B2 efga|gedB c3e|1 gedB BAAG:|2 gedB BA A2||
|:a2ea ageg|agbg agef|g2ef g2ef|geaf gedg|
a2ea ageg|agbg agef|gedB c3e|1 gedB BA A2:|2 gedB BAAG||

